X:1
T:Do Re Mi (Sound of Music)
C:Rodgers and Hammerstein
M:4/4
L:1/4
Q:120
K:C
%% Perfect for learning the major scale - stepwise motion
C2 D E | C E C E | D2 E F F | E D2 z |
E2 F G | E G E G | F2 G A A | G F2 z |
G2 C C | C G, C E | A2 B c | B A2 z |
A2 D D | D A, D F | B2 ^c d | d4 |
d2 c A | c B G B | A F D F | E4 |]
